resources/lib/oojs-ui/themes/mediawiki/images/icons/articleCheck-ltr.svg

<?xml version="1.0" encoding="utf-8"?>
<svg xmlns="http://www.w3.org/2000/svg" width="24" height="24" viewBox="0 0 24 24">
    <g>
        <g>
            <path d="M21 11l-6 7-4-4-1 1 5 5 7-8z"/>
        </g>
        <path d="M17 14v-11h-13v13c0 1.7 1.3 3 3 3h5l-3-3h-3v-1h2.6l1-1h-3.6v-1h9v1h-2l1 1h2l1-1zm-11-9h4v1h-4v-1zm0 2h4v1h-4v-1zm0 2h4v1h-4v-1zm9 3h-9v-1h9v1zm-4-2v-5h4v5h-4z"/>
    </g>
</svg>

<?xml version="1.0" encoding="utf-8"?>
<svg xmlns="http://www.w3.org/2000/svg" width="24" height="24" viewBox="0 0 24 24">
    <g>
        <g>
            <path d="M21 11l-6 7-4-4-1 1 5 5 7-8z"/>
        </g>
        <path d="M17 14V3H4v13c0 1.7 1.3 3 3 3h5l-3-3H6v-1h2.6l1-1H6v-1h9v1h-2l1 1h2l1-1zM6 5h4v1H6V5zm0 2h4v1H6V7zm0 2h4v1H6V9zm9 3H6v-1h9v1zm-4-2V5h4v5h-4z"/>
    </g>
</svg>
